X:1
T: Nancy Dawson
C:
R:Jig
Q:180
K:Bb
M:6/8
L:1/16
B4B2 B4d2|f4d2 B4d2|c4c2 c4d2|c4B2 A2G2F2|B4B2 B4d2|f4d2 B4d2|d2c2B2 A2B2G2|F6F6|
B4B2 B4d2|f4d2 B4d2|c4c2 c4d2|c4B2 A2G2F2|B4B2 B4d2|f4d2 B4d2|d2c2B2 A2B2G2|F6F6|
c4c2 c4d2|c4B2 A2G2F2|f4f2 f4g2|f4e2 d2c2B2|e4d2 e4f2|g4a2 b4ag|g2f2e2 d2e2c2|B6B4d2|
c4c2 c4d2|c4B2 A2G2F2|f4f2 f4g2|g2f2e2 d2c2B2|e4d2 e4f2|g4a2 b4ag|f2g2e2 d2e2c2|B6-B4||
